X: 5
T:Day The Pub Burned Down, The
M:4/4
L:1/8
Q:120
K:G
d|"G"GB dd ed d>B|dd ed"D"f2zd|
dd ed af d>d|d>d ed "G"B2zB|!
GB dd e<d dd|gg ag "C"e3g|
g>g ag "G"bg d>B|"D"d>c BA "G"G3:||
